X: 2026
T: Minuet.
%R: minuet
B: Henry Playford "Apollo's Banquet", London 1687 (5th Edition)
F: https://archive.org/details/apollosbanquetco01rugg
Z: 2017 John Chambers <jc:trillian.mit.edu>
M: 3/2
L: 1/8
K: Dm
% - - - - - - - - - -
|:\
a2(ba)(gf) g4c2 | fgg3(f/g/) agaba2 |\
a2(ba)(gf) g4c2 | fgg3(f/g/) a6 :|
|:\
f2fga2 d2def2 | e2fed^c d^cdede |\
f2fga2 d2def2 | e2fed^c d6 |]
% - - - - - - - - - -

%%sep 1 1 500
%%sep 1 1 500

